inmobi.svg

<svg version="1.1" id="Layer_1" xmlns:x="ns_extend;" xmlns:i="ns_ai;" xmlns:graph="ns_graphs;" xmlns="http://www.w3.org/2000/svg" xmlns:xlink="http://www.w3.org/1999/xlink" x="0px" y="0px" viewBox="0 0 504.9 74.4" style="enable-background:new 0 0 504.9 74.4;" xml:space="preserve">
 <style type="text/css">
  .st0{fill:#1476FC;}
	.st1{fill:url(#Path_241_1_);}
	.st2{fill:url(#Path_242_1_);}
	.st3{fill:url(#Path_243_1_);}
 </style>
 <metadata>
  <sfw xmlns="ns_sfw;">
   <slices>
   </slices>
   <sliceSourceBounds bottomLeftOrigin="true" height="74.4" width="504.9" x="398.3" y="-293.1">
   </sliceSourceBounds>
  </sfw>
 </metadata>
 <g>
  <g id="Group_439_00000026139385543653849690000007401976893967347877_" transform="translate(708 503)">
   <path id="Path_240_00000040543164122259929240000005010560707039377031_" class="st0" d="M-630.3-502.7c10.1,0,18.2,2.7,23.9,8.1
			c5.8,5.4,8.8,13.3,8.8,23.4v40.7c0,0.9-0.8,1.7-1.7,1.7h-13.4c-0.9,0-1.7-0.8-1.7-1.7v-42.2c0-4.7-1.4-8.3-4.2-10.8
			c-2.9-2.6-6.8-3.9-11.7-3.9h-14.4c-4.9,0-8.8,1.3-11.7,3.9c-2.8,2.6-4.2,6.1-4.2,10.8v42.2c0,0.9-0.8,1.7-1.7,1.7l0,0h-13.4
			c-0.9,0-1.7-0.8-1.7-1.7l0,0v-40.7c0-10.1,2.9-18,8.8-23.4c5.8-5.4,13.8-8.1,23.9-8.1H-630.3 M-474.2-502.7h-14.4
			c-10.1,0-18.2,2.7-23.9,8.1c-0.1,0.1-0.3,0.3-0.4,0.4c-0.1-0.1-0.3-0.3-0.4-0.4c-5.8-5.4-13.8-8.1-23.9-8.1h-14.4
			c-10.1,0-18.2,2.7-23.9,8.1c-5.8,5.4-8.8,13.3-8.8,23.4v40.7c0,0.9,0.8,1.7,1.7,1.7h13.4c0.9,0,1.7-0.8,1.7-1.7l0,0v-42.2
			c0-4.7,1.4-8.3,4.2-10.8c2.9-2.6,6.8-3.9,11.7-3.9h14.4c4.9,0,8.8,1.3,11.7,3.9c2.8,2.5,4.2,6.2,4.2,10.8v42.2
			c0,0.9,0.8,1.7,1.7,1.7l0,0h13.4c0.9,0,1.7-0.8,1.7-1.7c0,0,0,0,0,0l0-42.2c0-4.7,1.4-8.3,4.2-10.8c2.9-2.6,6.8-3.9,11.7-3.9h14.4
			c4.9,0,8.8,1.3,11.7,3.9c2.8,2.5,4.2,6.2,4.2,10.8v42.2c0,0.9,0.8,1.7,1.7,1.7l0,0h13.4c0.9,0,1.7-0.8,1.7-1.7l0,0v-40.7
			c0-10.1-2.9-18-8.8-23.4C-456-500-464.1-502.7-474.2-502.7 M-240.3-468.5c4.7,3.1,7.1,8.8,7.1,17c0,8-2,13.9-5.9,17.5
			c-3.9,3.5-9.9,5.3-17.9,5.3h-56c-0.9,0-1.7-0.8-1.7-1.7c0,0,0,0,0,0V-501c0-0.9,0.8-1.7,1.7-1.7l0,0h51.5c7.4,0,13.1,1.2,17,3.6
			c5.1,3.3,7.7,8.7,7.7,16.1c0.1,3.1-0.2,6.2-0.9,9.2C-238.1-471.9-239-470.1-240.3-468.5 M-261.2-475.1c6.9,0,7.9-2.8,7.9-5.9
			c0-3.3-1-6.3-8-6.3H-297c-0.5,0-0.8,0.4-0.8,0.8c0,0,0,0,0,0v10.6c0,0.5,0.4,0.8,0.8,0.8l0,0L-261.2-475.1 M-297.9-445.1
			c0,0.5,0.4,0.8,0.8,0.8l0,0h38.6c6.2,0,8.7-2.3,8.7-8.1c0-3.6-1.1-7.3-9.2-7.3H-297c-0.5,0-0.8,0.4-0.8,0.8c0,0,0,0,0,0
			L-297.9-445.1z M-204.8-502.6h-13.7c-0.9,0-1.7,0.8-1.7,1.7l0,0v70.5c0,0.9,0.8,1.7,1.7,1.7l0,0h13.6c0.9,0,1.7-0.8,1.7-1.7l0,0
			V-501C-203.1-501.9-203.9-502.6-204.8-502.6L-204.8-502.6z M-692.6-502.7h-13.7c-0.9,0-1.7,0.8-1.7,1.7c0,0,0,0,0,0v70.7
			c0,0.9,0.8,1.7,1.7,1.7l0,0h13.7c0.9,0,1.7-0.8,1.7-1.7l0,0V-501C-690.9-502-691.7-502.7-692.6-502.7
			C-692.6-502.7-692.6-502.7-692.6-502.7L-692.6-502.7z">
   </path>
  </g>
  <g>
   <linearGradient id="Path_241_1_" gradientUnits="userSpaceOnUse" x1="-399.2229" y1="862.3243" x2="-398.2436" y2="862.3243" gradientTransform="matrix(85.087 0 0 -31.1166 34250.0273 26848.2852)">
    <stop offset="0" style="stop-color:#A5D270">
    </stop>
    <stop offset="0.5" style="stop-color:#5DA4B6">
    </stop>
    <stop offset="0.7739" style="stop-color:#2F87E2">
    </stop>
    <stop offset="1" style="stop-color:#1476FC">
    </stop>
   </linearGradient>
   <path id="Path_241_00000138569960490702086780000016303982753577425315_" class="st1" d="M309.1,13.6L309.1,13.6l42.2,0
			c4.9,0.1,8.7,1.2,11.3,3.2c0.1,0,0.1,0,0.2,0c0,0,0-0.1,0-0.1c-3.1-5.8-7.8-10.7-13.5-14c-3-1.7-6.5-2.6-9.9-2.6h-31.3v0
			c-9.6,0.2-17.1,3.2-22.3,8.7c-5.1,5.4-7.8,12.9-8.1,22.2c0,0.1,0.1,0.1,0.1,0.1c0,0,0.1,0,0.1-0.1
			C284.6,20.2,296.4,13.6,309.1,13.6z">
   </path>
   <linearGradient id="Path_242_1_" gradientUnits="userSpaceOnUse" x1="-401.8748" y1="862.4943" x2="-401.6964" y2="861.5483" gradientTransform="matrix(33.652 0 0 -74.3677 13885.2168 64143.5781)">
    <stop offset="1.700000e-02" style="stop-color:#FFD522">
    </stop>
    <stop offset="0.1518" style="stop-color:#E0C437">
    </stop>
    <stop offset="0.5612" style="stop-color:#7B8C7E">
    </stop>
    <stop offset="0.9015" style="stop-color:#2379E9">
    </stop>
    <stop offset="1" style="stop-color:#1476FC">
    </stop>
   </linearGradient>
   <path id="Path_242_00000014630845450602277260000002636582082785919384_" class="st2" d="M374,8.9c-8.6-9.4-22.8-9-25.4-8.8
			c-0.1,0-0.1,0.1-0.1,0.1c0,0,0,0.1,0.1,0.1c10.7,5.3,18.2,15.7,19.8,27.5c0.7,4.9,0.3,14.7,0.3,14.7c-0.2,13.3-7.5,25.4-19.2,31.6
			c-0.1,0-0.1,0.1-0.1,0.2c0,0,0.1,0.1,0.1,0.1c2.5,0.1,16.1,0.4,24.6-8.8c5.3-5.8,8.1-13.8,8.1-23.9v-8.8
			C382.1,22.7,379.3,14.7,374,8.9z">
   </path>
   <linearGradient id="Path_243_1_" gradientUnits="userSpaceOnUse" x1="-399.2381" y1="862.2358" x2="-398.4063" y2="861.709" gradientTransform="matrix(85.715 0 0 -56.1461 34499.3086 48449.2227)">
    <stop offset="0" style="stop-color:#FC4B38">
    </stop>
    <stop offset="6.499109e-02" style="stop-color:#FC4B38">
    </stop>
    <stop offset="0.5" style="stop-color:#7E6985">
    </stop>
    <stop offset="0.9526" style="stop-color:#1476FC">
    </stop>
   </linearGradient>
   <path id="Path_243_00000016767590359823891360000011236747957546222227_" class="st3" d="M349.9,71.8c5.8-3.3,10.5-8.4,13.4-14.4
			c0-0.1,0-0.1-0.1-0.2c0,0-0.1,0-0.1,0c-2.7,2.3-6.5,3.4-11.7,3.5h-42.9c-5.9-0.1-10-1.6-12.7-4.5c-3-3.2-4.5-8.1-4.5-14.7v-8.8
			c0-9.1,3-13.2,4.2-14.4c0-0.1,0-0.1,0-0.2c0,0-0.1,0-0.1,0c-5.8,2.5-10.8,6.6-14.4,11.7c-2.2,3.2-3.4,7.1-3.3,11
			c0,6.1,1.2,17,8.3,24.6c5.7,6.1,14.3,8.8,22.3,8.7l32.2,0C343.7,74.3,347,73.5,349.9,71.8z">
   </path>
  </g>
 </g>
</svg>

<?xml version="1.0" encoding="UTF-8" standalone="no"?>
<!DOCTYPE svg PUBLIC "-//W3C//DTD SVG 1.1//EN" "http://www.w3.org/Graphics/SVG/1.1/DTD/svg11.dtd">
<svg width="100%" height="100%" viewBox="0 0 1800 200" version="1.1" xmlns="http://www.w3.org/2000/svg" xmlns:xlink="http://www.w3.org/1999/xlink" xml:space="preserve" xmlns:serif="http://www.serif.com/" style="fill-rule:evenodd;clip-rule:evenodd;stroke-linejoin:round;stroke-miterlimit:2;">
    <g transform="matrix(1.68344,0,0,1.68344,0,-0.0202067)">
        <g id="Inmobi">
            <g id="Path_240_00000040543164122259929240000005010560707039377031_" transform="matrix(1.58069,0,0,1.58069,1119.13,795.071)">
                <path d="M-630.3,-502.7C-620.2,-502.7 -612.1,-500 -606.4,-494.6C-600.6,-489.2 -597.6,-481.3 -597.6,-471.2L-597.6,-430.5C-597.6,-429.6 -598.4,-428.8 -599.3,-428.8L-612.7,-428.8C-613.6,-428.8 -614.4,-429.6 -614.4,-430.5L-614.4,-472.7C-614.4,-477.4 -615.8,-481 -618.6,-483.5C-621.5,-486.1 -625.4,-487.4 -630.3,-487.4L-644.7,-487.4C-649.6,-487.4 -653.5,-486.1 -656.4,-483.5C-659.2,-480.9 -660.6,-477.4 -660.6,-472.7L-660.6,-430.5C-660.6,-429.6 -661.4,-428.8 -662.3,-428.8L-675.7,-428.8C-676.6,-428.8 -677.4,-429.6 -677.4,-430.5L-677.4,-471.2C-677.4,-481.3 -674.5,-489.2 -668.6,-494.6C-662.8,-500 -654.8,-502.7 -644.7,-502.7L-630.3,-502.7M-474.2,-502.7L-488.6,-502.7C-498.7,-502.7 -506.8,-500 -512.5,-494.6C-512.6,-494.5 -512.8,-494.3 -512.9,-494.2C-513,-494.3 -513.2,-494.5 -513.3,-494.6C-519.1,-500 -527.1,-502.7 -537.2,-502.7L-551.6,-502.7C-561.7,-502.7 -569.8,-500 -575.5,-494.6C-581.3,-489.2 -584.3,-481.3 -584.3,-471.2L-584.3,-430.5C-584.3,-429.6 -583.5,-428.8 -582.6,-428.8L-569.2,-428.8C-568.3,-428.8 -567.5,-429.6 -567.5,-430.5L-567.5,-472.7C-567.5,-477.4 -566.1,-481 -563.3,-483.5C-560.4,-486.1 -556.5,-487.4 -551.6,-487.4L-537.2,-487.4C-532.3,-487.4 -528.4,-486.1 -525.5,-483.5C-522.7,-481 -521.3,-477.3 -521.3,-472.7L-521.3,-430.5C-521.3,-429.6 -520.5,-428.8 -519.6,-428.8L-506.2,-428.8C-505.3,-428.8 -504.5,-429.6 -504.5,-430.5L-504.5,-472.7C-504.5,-477.4 -503.1,-481 -500.3,-483.5C-497.4,-486.1 -493.5,-487.4 -488.6,-487.4L-474.2,-487.4C-469.3,-487.4 -465.4,-486.1 -462.5,-483.5C-459.7,-481 -458.3,-477.3 -458.3,-472.7L-458.3,-430.5C-458.3,-429.6 -457.5,-428.8 -456.6,-428.8L-443.2,-428.8C-442.3,-428.8 -441.5,-429.6 -441.5,-430.5L-441.5,-471.2C-441.5,-481.3 -444.4,-489.2 -450.3,-494.6C-456,-500 -464.1,-502.7 -474.2,-502.7M-240.3,-468.5C-235.6,-465.4 -233.2,-459.7 -233.2,-451.5C-233.2,-443.5 -235.2,-437.6 -239.1,-434C-243,-430.5 -249,-428.7 -257,-428.7L-313,-428.7C-313.9,-428.7 -314.7,-429.5 -314.7,-430.4L-314.7,-501C-314.7,-501.9 -313.9,-502.7 -313,-502.7L-261.5,-502.7C-254.1,-502.7 -248.4,-501.5 -244.5,-499.1C-239.4,-495.8 -236.8,-490.4 -236.8,-483C-236.7,-479.9 -237,-476.8 -237.7,-473.8C-238.1,-471.9 -239,-470.1 -240.3,-468.5M-261.2,-475.1C-254.3,-475.1 -253.3,-477.9 -253.3,-481C-253.3,-484.3 -254.3,-487.3 -261.3,-487.3L-297,-487.3C-297.5,-487.3 -297.8,-486.9 -297.8,-486.5L-297.8,-475.9C-297.8,-475.4 -297.4,-475.1 -297,-475.1L-261.2,-475.1M-297.9,-445.1C-297.9,-444.6 -297.5,-444.3 -297.1,-444.3L-258.5,-444.3C-252.3,-444.3 -249.8,-446.6 -249.8,-452.4C-249.8,-456 -250.9,-459.7 -259,-459.7L-297,-459.7C-297.5,-459.7 -297.8,-459.3 -297.8,-458.9L-297.9,-445.1ZM-204.8,-502.6L-218.5,-502.6C-219.4,-502.6 -220.2,-501.8 -220.2,-500.9L-220.2,-430.4C-220.2,-429.5 -219.4,-428.7 -218.5,-428.7L-204.9,-428.7C-204,-428.7 -203.2,-429.5 -203.2,-430.4L-203.2,-501C-203.1,-501.9 -203.9,-502.6 -204.8,-502.6ZM-692.6,-502.7L-706.3,-502.7C-707.2,-502.7 -708,-501.9 -708,-501L-708,-430.3C-708,-429.4 -707.2,-428.6 -706.3,-428.6L-692.6,-428.6C-691.7,-428.6 -690.9,-429.4 -690.9,-430.3L-690.9,-501C-690.9,-502 -691.7,-502.7 -692.6,-502.7Z" style="fill:rgb(20,118,252);fill-rule:nonzero;"/>
            </g>
            <g transform="matrix(1.58069,0,0,1.58069,6.59472e-14,-0.0171687)">
                <path id="Path_241_00000138569960490702086780000016303982753577425315_" d="M309.1,13.6L351.3,13.6C356.2,13.7 360,14.8 362.6,16.8L362.8,16.8L362.8,16.7C359.7,10.9 355,6 349.3,2.7C346.3,1 342.8,0.1 339.4,0.1L308.1,0.1C298.5,0.3 291,3.3 285.8,8.8C280.7,14.2 278,21.7 277.7,31C277.7,31.1 277.8,31.1 277.8,31.1C277.8,31.1 277.9,31.1 277.9,31C284.6,20.2 296.4,13.6 309.1,13.6Z" style="fill:url(#_Linear1);fill-rule:nonzero;"/>
                <path id="Path_242_00000014630845450602277260000002636582082785919384_" d="M374,8.9C365.4,-0.5 351.2,-0.1 348.6,0.1C348.5,0.1 348.5,0.2 348.5,0.2C348.5,0.2 348.5,0.3 348.6,0.3C359.3,5.6 366.8,16 368.4,27.8C369.1,32.7 368.7,42.5 368.7,42.5C368.5,55.8 361.2,67.9 349.5,74.1C349.4,74.1 349.4,74.2 349.4,74.3L349.5,74.4C352,74.5 365.6,74.8 374.1,65.6C379.4,59.8 382.2,51.8 382.2,41.7L382.2,32.9C382.1,22.7 379.3,14.7 374,8.9Z" style="fill:url(#_Linear2);fill-rule:nonzero;"/>
                <path id="Path_243_00000016767590359823891360000011236747957546222227_" d="M349.9,71.8C355.7,68.5 360.4,63.4 363.3,57.4C363.3,57.3 363.3,57.3 363.2,57.2L363.1,57.2C360.4,59.5 356.6,60.6 351.4,60.7L308.5,60.7C302.6,60.6 298.5,59.1 295.8,56.2C292.8,53 291.3,48.1 291.3,41.5L291.3,32.7C291.3,23.6 294.3,19.5 295.5,18.3L295.5,18.1L295.4,18.1C289.6,20.6 284.6,24.7 281,29.8C278.8,33 277.6,36.9 277.7,40.8C277.7,46.9 278.9,57.8 286,65.4C291.7,71.5 300.3,74.2 308.3,74.1L340.5,74.1C343.7,74.3 347,73.5 349.9,71.8Z" style="fill:url(#_Linear3);fill-rule:nonzero;"/>
            </g>
        </g>
    </g>
    <defs>
        <linearGradient id="_Linear1" x1="0" y1="0" x2="1" y2="0" gradientUnits="userSpaceOnUse" gradientTransform="matrix(83.3257,0,0,83.3257,281.348,15.6849)"><stop offset="0" style="stop-color:rgb(165,210,112);stop-opacity:1"/><stop offset="0.5" style="stop-color:rgb(93,164,182);stop-opacity:1"/><stop offset="0.77" style="stop-color:rgb(47,135,226);stop-opacity:1"/><stop offset="1" style="stop-color:rgb(20,118,252);stop-opacity:1"/></linearGradient>
        <linearGradient id="_Linear2" x1="0" y1="0" x2="1" y2="0" gradientUnits="userSpaceOnUse" gradientTransform="matrix(6.00352,70.3518,-70.3518,6.00352,361.326,1.86075)"><stop offset="0" style="stop-color:rgb(255,213,34);stop-opacity:1"/><stop offset="0.02" style="stop-color:rgb(255,213,34);stop-opacity:1"/><stop offset="0.15" style="stop-color:rgb(224,196,55);stop-opacity:1"/><stop offset="0.56" style="stop-color:rgb(123,140,126);stop-opacity:1"/><stop offset="0.9" style="stop-color:rgb(35,121,233);stop-opacity:1"/><stop offset="1" style="stop-color:rgb(20,118,252);stop-opacity:1"/></linearGradient>
        <linearGradient id="_Linear3" x1="0" y1="0" x2="1" y2="0" gradientUnits="userSpaceOnUse" gradientTransform="matrix(71.2977,29.5778,-29.5778,71.2977,278.615,38.0452)"><stop offset="0" style="stop-color:rgb(252,75,56);stop-opacity:1"/><stop offset="0.06" style="stop-color:rgb(252,75,56);stop-opacity:1"/><stop offset="0.5" style="stop-color:rgb(126,105,133);stop-opacity:1"/><stop offset="0.95" style="stop-color:rgb(20,118,252);stop-opacity:1"/><stop offset="1" style="stop-color:rgb(20,118,252);stop-opacity:1"/></linearGradient>
    </defs>
</svg>
